X: 3212
T: STEWART TARTAN
Q: "Highland Schottische."
R: Schottische.
%R: shottish
B: James Kerr "Merry Melodies" v.3 p.24 #212
Z: 2016 John Chambers <jc:trillian.mit.edu>
M: C
L: 1/8
K: A
|:\
c2 B>A F<A E<C | E<E c>A B2 e2 |\
c2 B>A F<A E>C | E<E c>A B2 A2 ::\
c2 B>A (c<e) (e<a) | f>ec>A (c<B) B2 |\
c2 B>A (3cde (3fga | E<E c>A B2 A2 :|

% %newpage
%%sep 1 1 500
%%sep 1 1 500
%%center JIGS

%%sep 1 1 500
%%sep 1 1 500

